X: 5
T: The Fermoy Lasses
R: reel
M: 4/4
L: 1/8
K: Emin
GBEB GBEB|EBGB c2 BA|GBEB GBEB|EDFG A2 BA|GBEB GBEB|EBGB c2 BA|GABc dedc|ADFA c2 BA:||G2 BG dGBG|G/G/G Bd egdB|G2 BG dGBG|AFDF AcBA|G2 BG dGBG|G/G/G Bd e2 ef|gagf edBd|(e/f/g) dB AGEF:||


Tune 219	Setting 219

